X: 19820
T: Jerry Holland's
R: reel
M: 4/4
K: Edorian
ef|ge ((3eee) edBc|dBAG FEDF|EB, ((3B,B,B,) EFGE|FB ~B2 FBef|
ge ((3eee) edBc|dBAG FEDF|EB, ((3B,B,B,) EFGE|bagf geef:|
eB ((3BBB) eBbe|gaaf defa|eB ((3BBB) eBbe|gaaf deed|
eB ((3BBB) eBbe|ga2f defa|eB ((3BBB) eBbe|1 agef e2 ef:|2 agef e4||

